assets/images/icons/bbq.svg

<svg viewBox="0 0 50 50" xmlns="http://www.w3.org/2000/svg"><path d="m18.90625 1.96875c-.042969.007813-.085937.019531-.125.03125-.375.066406-.675781.339844-.78125.703125-.105469.367188.003906.757813.28125 1.015625.730469.722656.769531 1.035156.71875 1.34375s-.347656.773438-.78125 1.34375c-.433594.570313-1.023437 1.242188-1.1875 2.21875-.164062.976563.246094 2.097656 1.25 3.09375.398438.398438 1.039063.398438 1.4375 0 .398438-.398437.398438-1.039062 0-1.4375-.726562-.722656-.769531-1.035156-.71875-1.34375s.378906-.773437.8125-1.34375c.433594-.570312.992188-1.242187 1.15625-2.21875.164063-.976562-.246094-2.097656-1.25-3.09375-.207031-.222656-.507812-.335937-.8125-.3125zm6 0c-.042969.007813-.085937.019531-.125.03125-.375.066406-.675781.339844-.78125.703125-.105469.367188.003906.757813.28125 1.015625.730469.722656.769531 1.035156.71875 1.34375s-.347656.773438-.78125 1.34375c-.433594.570313-1.023437 1.242188-1.1875 2.21875-.164062.976563.246094 2.097656 1.25 3.09375.398438.398438 1.039063.398438 1.4375 0 .398438-.398437.398438-1.039062 0-1.4375-.726562-.722656-.769531-1.035156-.71875-1.34375s.378906-.773437.8125-1.34375c.433594-.570312.992188-1.242187 1.15625-2.21875.164063-.976562-.246094-2.097656-1.25-3.09375-.207031-.222656-.507812-.335937-.8125-.3125zm6 0c-.042969.007813-.085937.019531-.125.03125-.375.066406-.675781.339844-.78125.703125-.105469.367188.003906.757813.28125 1.015625.730469.722656.769531 1.035156.71875 1.34375s-.347656.773438-.78125 1.34375c-.433594.570313-1.023437 1.242188-1.1875 2.21875-.164062.976563.246094 2.097656 1.25 3.09375.398438.398438 1.039063.398438 1.4375 0 .398438-.398437.398438-1.039062 0-1.4375-.726562-.722656-.769531-1.035156-.71875-1.34375s.378906-.773437.8125-1.34375c.433594-.570312.992188-1.242187 1.15625-2.21875.164063-.976562-.246094-2.097656-1.25-3.09375-.207031-.222656-.507812-.335937-.8125-.3125zm-23.90625 12.03125v1c0 6.566406 3.550781 12.292969 8.8125 15.4375l-4.78125 16.28125c-.15625.535156.152344 1.09375.6875 1.25s1.09375-.152344 1.25-.6875l2.4375-8.28125h19.125l.46875 1.5625c-1.183594.695313-2 1.972656-2 3.4375 0 2.199219 1.800781 4 4 4s4-1.800781 4-4-1.800781-4-4-4c-.03125 0-.0625 0-.09375 0l-2.71875-9.53125c5.269531-3.140625 8.8125-8.898437 8.8125-15.46875v-1zm2.09375 2h31.8125c-.355469 5.640625-3.605469 10.5-8.28125 13.0625-.007812.003906-.023437-.003906-.03125 0-.066406.035156-.128906.078125-.1875.125-.019531.011719-.042969.019531-.0625.03125-2.195312 1.144531-4.6875 1.78125-7.34375 1.78125-2.621094 0-5.074219-.632812-7.25-1.75-.121094-.121094-.273437-.207031-.4375-.25-4.636719-2.574219-7.867187-7.390625-8.21875-13zm8.53125 15.40625c2.253906 1.019531 4.742188 1.59375 7.375 1.59375 2.621094 0 5.097656-.582031 7.34375-1.59375l1.625 5.59375h-18zm19.1875 10.59375c.0625-.003906.125 0 .1875 0 1.117188 0 2 .882813 2 2 0 1.117188-.882812 2-2 2-1.117187 0-2-.882812-2-2 0-.8125.472656-1.496094 1.15625-1.8125.21875.019531.441406-.035156.625-.15625.011719 0 .019531-.03125.03125-.03125z" fill="#d59567"/></svg>

<?xml version="1.0" encoding="UTF-8"?>


<svg xmlns="http://www.w3.org/2000/svg" viewBox="0 0 50 50" version="1.1">
<g id="surface1" fill="#D59567">
<path style="" d="M 18.90625 1.96875 C 18.863281 1.976563 18.820313 1.988281 18.78125 2 C 18.40625 2.066406 18.105469 2.339844 18 2.703125 C 17.894531 3.070313 18.003906 3.460938 18.28125 3.71875 C 19.011719 4.441406 19.050781 4.753906 19 5.0625 C 18.949219 5.371094 18.652344 5.835938 18.21875 6.40625 C 17.785156 6.976563 17.195313 7.648438 17.03125 8.625 C 16.867188 9.601563 17.277344 10.722656 18.28125 11.71875 C 18.679688 12.117188 19.320313 12.117188 19.71875 11.71875 C 20.117188 11.320313 20.117188 10.679688 19.71875 10.28125 C 18.992188 9.558594 18.949219 9.246094 19 8.9375 C 19.050781 8.628906 19.378906 8.164063 19.8125 7.59375 C 20.246094 7.023438 20.804688 6.351563 20.96875 5.375 C 21.132813 4.398438 20.722656 3.277344 19.71875 2.28125 C 19.511719 2.058594 19.210938 1.945313 18.90625 1.96875 Z M 24.90625 1.96875 C 24.863281 1.976563 24.820313 1.988281 24.78125 2 C 24.40625 2.066406 24.105469 2.339844 24 2.703125 C 23.894531 3.070313 24.003906 3.460938 24.28125 3.71875 C 25.011719 4.441406 25.050781 4.753906 25 5.0625 C 24.949219 5.371094 24.652344 5.835938 24.21875 6.40625 C 23.785156 6.976563 23.195313 7.648438 23.03125 8.625 C 22.867188 9.601563 23.277344 10.722656 24.28125 11.71875 C 24.679688 12.117188 25.320313 12.117188 25.71875 11.71875 C 26.117188 11.320313 26.117188 10.679688 25.71875 10.28125 C 24.992188 9.558594 24.949219 9.246094 25 8.9375 C 25.050781 8.628906 25.378906 8.164063 25.8125 7.59375 C 26.246094 7.023438 26.804688 6.351563 26.96875 5.375 C 27.132813 4.398438 26.722656 3.277344 25.71875 2.28125 C 25.511719 2.058594 25.210938 1.945313 24.90625 1.96875 Z M 30.90625 1.96875 C 30.863281 1.976563 30.820313 1.988281 30.78125 2 C 30.40625 2.066406 30.105469 2.339844 30 2.703125 C 29.894531 3.070313 30.003906 3.460938 30.28125 3.71875 C 31.011719 4.441406 31.050781 4.753906 31 5.0625 C 30.949219 5.371094 30.652344 5.835938 30.21875 6.40625 C 29.785156 6.976563 29.195313 7.648438 29.03125 8.625 C 28.867188 9.601563 29.277344 10.722656 30.28125 11.71875 C 30.679688 12.117188 31.320313 12.117188 31.71875 11.71875 C 32.117188 11.320313 32.117188 10.679688 31.71875 10.28125 C 30.992188 9.558594 30.949219 9.246094 31 8.9375 C 31.050781 8.628906 31.378906 8.164063 31.8125 7.59375 C 32.246094 7.023438 32.804688 6.351563 32.96875 5.375 C 33.132813 4.398438 32.722656 3.277344 31.71875 2.28125 C 31.511719 2.058594 31.210938 1.945313 30.90625 1.96875 Z M 7 14 L 7 15 C 7 21.566406 10.550781 27.292969 15.8125 30.4375 L 11.03125 46.71875 C 10.875 47.253906 11.183594 47.8125 11.71875 47.96875 C 12.253906 48.125 12.8125 47.816406 12.96875 47.28125 L 15.40625 39 L 34.53125 39 L 35 40.5625 C 33.816406 41.257813 33 42.535156 33 44 C 33 46.199219 34.800781 48 37 48 C 39.199219 48 41 46.199219 41 44 C 41 41.800781 39.199219 40 37 40 C 36.96875 40 36.9375 40 36.90625 40 L 34.1875 30.46875 C 39.457031 27.328125 43 21.570313 43 15 L 43 14 Z M 9.09375 16 L 40.90625 16 C 40.550781 21.640625 37.300781 26.5 32.625 29.0625 C 32.617188 29.066406 32.601563 29.058594 32.59375 29.0625 C 32.527344 29.097656 32.464844 29.140625 32.40625 29.1875 C 32.386719 29.199219 32.363281 29.207031 32.34375 29.21875 C 30.148438 30.363281 27.65625 31 25 31 C 22.378906 31 19.925781 30.367188 17.75 29.25 C 17.628906 29.128906 17.476563 29.042969 17.3125 29 C 12.675781 26.425781 9.445313 21.609375 9.09375 16 Z M 17.625 31.40625 C 19.878906 32.425781 22.367188 33 25 33 C 27.621094 33 30.097656 32.417969 32.34375 31.40625 L 33.96875 37 L 15.96875 37 Z M 36.8125 42 C 36.875 41.996094 36.9375 42 37 42 C 38.117188 42 39 42.882813 39 44 C 39 45.117188 38.117188 46 37 46 C 35.882813 46 35 45.117188 35 44 C 35 43.1875 35.472656 42.503906 36.15625 42.1875 C 36.375 42.207031 36.597656 42.152344 36.78125 42.03125 C 36.792969 42.03125 36.800781 42 36.8125 42 Z"/>
</g>
</svg>
